sites/WD/images/WD.svg

<svg width="85" height="38" viewBox="0 0 85 38" fill="none" xmlns="http://www.w3.org/2000/svg">
<path d="M9.67188 0.5625C9.57812 1.26562 9.51562 1.98438 9.48438 2.71875C9.45312 3.4375 9.4375 4.1875 9.4375 4.96875C9.4375 6.35938 9.50781 7.78125 9.64844 9.23438C9.78906 10.6719 10 12.1094 10.2812 13.5469C10.5625 14.9844 10.9141 16.3984 11.3359 17.7891C11.7578 19.1641 12.2422 20.4766 12.7891 21.7266C13.3516 22.9766 13.9766 24.1406 14.6641 25.2188C15.3672 26.2969 16.1406 27.25 16.9844 28.0781C17.9062 27.125 18.6484 26.0312 19.2109 24.7969C19.7891 23.5469 20.2344 22.25 20.5469 20.9062C20.875 19.5469 21.0938 18.1797 21.2031 16.8047C21.3125 15.4297 21.375 14.125 21.3906 12.8906H26.5469C26.5469 14.125 26.6016 15.4219 26.7109 16.7812C26.8203 18.1406 27.0312 19.4922 27.3438 20.8359C27.6562 22.1641 28.0938 23.4531 28.6562 24.7031C29.2188 25.9375 29.9531 27.0469 30.8594 28.0312C32.1719 26.6094 33.3047 25 34.2578 23.2031C35.2109 21.3906 36 19.4922 36.625 17.5078C37.25 15.5234 37.7109 13.4922 38.0078 11.4141C38.3047 9.33594 38.4531 7.29688 38.4531 5.29688C38.4531 3.625 38.3594 2.01562 38.1719 0.46875C39.5469 0.53125 40.7734 0.625 41.8516 0.75C42.9453 0.875 43.8906 1 44.6875 1.125C45.5938 1.28125 46.4062 1.4375 47.125 1.59375V7.5C46.6094 7.32812 46.1016 7.19531 45.6016 7.10156C45.1172 6.99219 44.6406 6.875 44.1719 6.75C44.1719 10.1094 43.8438 13.2266 43.1875 16.1016C42.5469 18.9609 41.6484 21.6328 40.4922 24.1172C39.3359 26.6016 37.9531 28.9062 36.3438 31.0312C34.7344 33.1562 32.9688 35.1406 31.0469 36.9844C29.6719 35.6562 28.3906 34.1719 27.2031 32.5312C26.0312 30.8906 24.9531 29.0312 23.9688 26.9531C22.9531 29.0312 21.8438 30.8984 20.6406 32.5547C19.4531 34.2109 18.1719 35.7031 16.7969 37.0312C14.8906 35.1875 13.1484 33.2031 11.5703 31.0781C9.99219 28.9531 8.64062 26.6484 7.51562 24.1641C6.39062 21.6797 5.51562 19.0078 4.89062 16.1484C4.26562 13.2734 3.95312 10.1562 3.95312 6.79688C3.39062 6.92188 2.84375 7.03906 2.3125 7.14844C1.79688 7.24219 1.28125 7.375 0.765625 7.54688V1.59375C0.765625 1.60938 0.96875 1.57812 1.375 1.5C1.79688 1.42188 2.39062 1.32813 3.15625 1.21875C3.9375 1.09375 4.875 0.976563 5.96875 0.867188C7.0625 0.742188 8.29688 0.640625 9.67188 0.5625ZM66.8594 0.28125C69.2656 0.28125 71.5312 0.492188 73.6562 0.914062C75.7812 1.33594 77.6406 1.92188 79.2344 2.67188C80.8281 3.42188 82.0859 4.32812 83.0078 5.39062C83.9297 6.4375 84.3906 7.59375 84.3906 8.85938V27.5156C84.3906 28.7812 83.9297 29.9453 83.0078 31.0078C82.0859 32.0547 80.8281 32.9531 79.2344 33.7031C77.6406 34.4531 75.7812 35.0391 73.6562 35.4609C71.5312 35.8828 69.2656 36.0938 66.8594 36.0938C65.5156 36.0938 64.1406 36.0469 62.7344 35.9531C61.3281 35.8438 59.9609 35.7109 58.6328 35.5547C57.3203 35.3828 56.0859 35.1875 54.9297 34.9688C53.7734 34.75 52.7812 34.5156 51.9531 34.2656V2.10938C52.7812 1.85937 53.7734 1.625 54.9297 1.40625C56.0859 1.1875 57.3203 1 58.6328 0.84375C59.9609 0.671875 61.3281 0.539062 62.7344 0.445312C64.1406 0.335937 65.5156 0.28125 66.8594 0.28125ZM66.9531 5.57812C65.5312 5.57812 64.2969 5.625 63.25 5.71875C62.2031 5.79688 61.3047 5.90625 60.5547 6.04688C59.8047 6.17188 59.1797 6.3125 58.6797 6.46875C58.1953 6.60938 57.7969 6.73438 57.4844 6.84375V29.5312C57.7969 29.6562 58.1953 29.7891 58.6797 29.9297C59.1797 30.0703 59.8047 30.2109 60.5547 30.3516C61.3047 30.4766 62.2031 30.5859 63.25 30.6797C64.2969 30.7578 65.5312 30.7969 66.9531 30.7969C68.7031 30.7969 70.2734 30.6562 71.6641 30.375C73.0703 30.0938 74.25 29.7188 75.2031 29.25C76.1719 28.7812 76.9141 28.2422 77.4297 27.6328C77.9453 27.0078 78.2031 26.3594 78.2031 25.6875V10.6875C78.2031 10.0156 77.9453 9.375 77.4297 8.76562C76.9141 8.14062 76.1719 7.59375 75.2031 7.125C74.25 6.65625 73.0703 6.28125 71.6641 6C70.2734 5.71875 68.7031 5.57812 66.9531 5.57812Z" fill="#34547A"/>
</svg>

<svg width="85" height="38" fill="none" xmlns="http://www.w3.org/2000/svg"><path d="M9.672.563a24.037 24.037 0 0 0-.188 2.156 51.842 51.842 0 0 0-.046 2.25c0 1.39.07 2.812.21 4.265.141 1.438.352 2.875.633 4.313a43.17 43.17 0 0 0 1.055 4.242 36.598 36.598 0 0 0 1.453 3.938 27.39 27.39 0 0 0 1.875 3.492 16.984 16.984 0 0 0 2.32 2.86 11.599 11.599 0 0 0 2.227-3.282 20.073 20.073 0 0 0 1.336-3.89c.328-1.36.547-2.727.656-4.102.11-1.375.172-2.68.188-3.914h5.156c0 1.234.055 2.53.164 3.89.11 1.36.32 2.711.633 4.055.312 1.328.75 2.617 1.312 3.867a12.584 12.584 0 0 0 2.203 3.328 22.885 22.885 0 0 0 3.399-4.828 34.437 34.437 0 0 0 2.367-5.695 38.265 38.265 0 0 0 1.383-6.094c.297-2.078.445-4.117.445-6.117a40.12 40.12 0 0 0-.281-4.828c1.375.062 2.601.156 3.68.281 1.093.125 2.039.25 2.836.375.906.156 1.718.313 2.437.469V7.5a11.547 11.547 0 0 0-1.523-.398c-.485-.11-.961-.227-1.43-.352 0 3.36-.328 6.477-.984 9.352-.641 2.859-1.54 5.53-2.696 8.015a37.902 37.902 0 0 1-4.148 6.914 50.428 50.428 0 0 1-5.297 5.953 33.384 33.384 0 0 1-3.844-4.453c-1.172-1.64-2.25-3.5-3.234-5.578-1.016 2.078-2.125 3.945-3.328 5.602a32.655 32.655 0 0 1-3.844 4.476 48.48 48.48 0 0 1-5.227-5.953 37.503 37.503 0 0 1-4.054-6.914c-1.125-2.484-2-5.156-2.625-8.016-.625-2.875-.938-5.992-.938-9.351-.562.125-1.11.242-1.64.351-.516.094-1.032.227-1.547.399V1.594c0 .015.203-.016.609-.094a46.706 46.706 0 0 1 1.781-.281A49.031 49.031 0 0 1 5.97.867 65.758 65.758 0 0 1 9.672.563ZM66.859.28c2.407 0 4.672.211 6.797.633 2.125.422 3.985 1.008 5.578 1.758 1.594.75 2.852 1.656 3.774 2.719.922 1.046 1.383 2.203 1.383 3.468v18.657c0 1.265-.461 2.43-1.383 3.492-.922 1.047-2.18 1.945-3.774 2.695-1.593.75-3.453 1.336-5.578 1.758-2.125.422-4.39.633-6.797.633-1.343 0-2.718-.047-4.125-.14-1.406-.11-2.773-.243-4.101-.4a66.274 66.274 0 0 1-3.703-.585 29.314 29.314 0 0 1-2.977-.703V2.109a29.3 29.3 0 0 1 2.977-.703 54.817 54.817 0 0 1 3.703-.562 66.351 66.351 0 0 1 4.101-.399A53.2 53.2 0 0 1 66.86.281Zm.094 5.297a42.2 42.2 0 0 0-3.703.14 24.957 24.957 0 0 0-2.695.329c-.75.125-1.375.266-1.875.422-.485.14-.883.265-1.196.375V29.53c.313.125.711.258 1.196.399.5.14 1.125.28 1.875.422.75.125 1.648.234 2.695.328a50.61 50.61 0 0 0 3.703.117c1.75 0 3.32-.14 4.711-.422 1.406-.281 2.586-.656 3.54-1.125.968-.469 1.71-1.008 2.226-1.617.515-.625.773-1.274.773-1.945v-15c0-.672-.258-1.313-.773-1.922-.516-.625-1.258-1.172-2.227-1.641-.953-.469-2.133-.844-3.539-1.125-1.39-.281-2.96-.422-4.71-.422Z" fill="#34547A"/></svg>
